X:1
T:Title
%%score { ( 1 3 ) | ( 2 4 ) }
L:1/8
M:4/4
K:A
V:1 treble nm="Grand Piano"
V:3 treble 
V:2 bass 
V:4 bass 
V:1
 z4 z2[Q:1/4=100] EA | c2 [DGB]2 [CA]2 [A,EA][A,EG] | F2 A2 E2 ED | C2 E2 A2 [Ec]2 |[M:3/4] B6 | %5
[M:1/4] EA |[M:4/4] c2 [DGB]2 [CA]2 [A,EA][A,EG] | [A,DF]2 [A,DA]2 [CE]2 [B,E]2 | %8
 [CFA] [CFA]2 [CFA] [DFB]2 [DF]2 |[M:3/4] A4 z2 |[M:1/4] [G,E][G,E] |[M:4/4] [A,EA]2 [EGB]2 c2 AB | %12
 c2 [Ad]2 [Ae]2 [FBd]2 | [EAc]4 [DGB]4 |[M:3/4] [CA]6 |] %15
V:2
 z4 z2 E,A, | C2 E,2 F,2 C,C, | [D,A,D]2 [F,A,D]2 [A,C]2 [G,B,][G,B,] | %3
 A,2 [G,B,]2 [F,A,C]2 [C,A,]2 |[M:3/4] [E,G,E]6 |[M:1/4] E,A, |[M:4/4] C2 E,2 F,2 C,C, | %7
 D,E,F,G, A,2 G,2 | F, F,2 E, D,2 B,,2 |[M:3/4] z2 z2 G2 |[M:1/4] E,D, | %11
[M:4/4] C,2 E,2[K:treble] [A,EA]2 [CE][B,EG] | [A,EA]2[K:bass] [F,D]2 [C,A,]2 D,2 | E,4 E,4 | %14
[M:3/4] A,,6 |] %15
V:3
 x8 | x8 | x8 | x8 |[M:3/4] x6 |[M:1/4] x2 |[M:4/4] x8 | x8 | x8 |[M:3/4] [B,E]6 |[M:1/4] x2 | %11
[M:4/4] x8 | x8 | x8 |[M:3/4] x6 |] %15
V:4
 x8 | x8 | x8 | x8 |[M:3/4] x6 |[M:1/4] x2 |[M:4/4] x8 | x8 | x8 |[M:3/4] E,6 |[M:1/4] x2 | %11
[M:4/4] x4[K:treble] x4 | x2[K:bass] x6 | x8 |[M:3/4] x6 |] %15

